X: 4
T: Variation ideas for prev
R: jig
M: 6/8
L: 1/8
K: Dmix
|:DED F2 G|Azd =cAF|GEG BAG|FEF GEA|
|DED F2 G|Azd =cAF|G3 BAG| AFD D2 z:|
DFA |:d2e f3|a3 gfe|d2e fed|dcA dcA|
| d2e f3|aza gfe|dcA BAG| AFD D2 z||
